!!!!SEGMENT: pl-sa--93-a-ii-33--003_pleyel-ignace--grande-sinfonie-in-d-menuetto.krn
!!!cenid: 17xx:657
!!!COM: Pleyel, Ignace
!!!COM-rismID: pe24761
!!!CDT: 1757/06/18-1831/11/14
!!!CNT: French
!!!OPR: Grande Sinfonie in D
!!!OTL: Menuetto
!!!OMV: 003
!!!PDT:
!!!AGN: Secular
!!!SMS-siglum: PL-SA
!!!SMS-shelfmark: 93/A II 33
!!!SMS-shelfwork: 001-003 M
!!!SMS-variant:
!!!SMS-altvar:
!!!NIFC-rismSourceID: 1001034989
!!!NIFC-rismChildID: 1001034989
!!!NIFC-islandoraID: none
!!!URL-pdf-islandora:
!!!URL-scan: https://bc.bdsandomierz.pl/dlibra/publication/1370/edition/1338/content @EN{Scan in the Sandomierz Diocese Digital Library} @PL{Skany w portalu Cyfrowa Biblioteka Diecezjalna w Sandomierzu}
!!!ONB-nifc: UWAGA: części: Allegro molto, Andantino grazioso, Menuetto, Rondo
!!!AIN: 2 cor 1 empty 1 flt 1 viola 2 violn
!!!key:
**kern	**dynam	**kern	**dynam	**kern	**dynam	**kern	**dynam	**kern	**dynam	**kern	**dynam	**kern	**dynam
*part7	*part7	*part6	*part6	*part5	*part5	*part4	*part4	*part3	*part3	*part2	*part2	*part1	*part1
*group2	*	*group2	*	*group2	*	*group2	*	*group1	*	*group1	*	*	*
*staff7	*	*staff6	*	*staff5	*	*staff4	*	*staff3	*	*staff2	*	*staff1	*
*Iempty	*	*Iviola	*	*Ivioln	*	*Ivioln	*	*Icor	*	*Icor	*	*Iflt	*
*I"Baſso	*	*I"Alto Viola	*	*I"Violino 2.do	*	*I"Violino Primo	*	*I"Corno Secondo in. D.	*	*I"Corno Primo in D.	*	*I"Flauto Solo	*
*I'b	*	*I'a-vla	*	*I'vl 2	*	*I'vl 1	*	*I'cor 2	*	*I'cor 1	*	*I'fl	*
*clefF4	*	*clefC3	*	*clefG2	*	*clefG2	*	*clefG2	*	*clefG2	*	*clefG2	*
*	*	*	*	*	*	*	*	*ITrd-1c-2	*	*ITrd-1c-2	*	*	*
*k[f#c#]	*	*k[f#c#]	*	*k[f#c#]	*	*k[f#c#]	*	*k[f#c#]	*	*k[f#c#]	*	*k[f#c#]	*
*D:	*	*D:	*	*D:	*	*D:	*	*	*	*	*	*D:	*
*M3/4	*	*M3/4	*	*M3/4	*	*M3/4	*	*M3/4	*	*M3/4	*	*M3/4	*
*>[A,A,B,B,C,C,D,D,A,B]	*	*>[A,A,B,B,C,C,D,D,A,B]	*	*>[A,A,B,B,C,C,D,D,A,B]	*	*>[A,A,B,B,C,C,D,D,A,B]	*	*>[A,A,B,B,C,C,D,D,A,B]	*	*>[A,A,B,B,C,C,D,D,A,B]	*	*>[A,A,B,B,C,C,D,D,A,B]	*
*>A	*	*>A	*	*>A	*	*>A	*	*>A	*	*>A	*	*>A	*
!LO:TX:a:B:t=Menuetto Allegretto	!	!LO:TX:a:i:t=Menuetto. Allegretto.	!	!LO:TX:a:t=Menuetto Allegretto.	!	!LO:TX:a:t=Menuetto Allegretto.	!LO:DY:a	!LO:TX:a:B:t=Menuetto allegretto in D.	!	!LO:TX:a:B:t=Menuetto Allegretto in D.	!	!LO:TX:a:B:t=Menuetto. \nAllegretto.	!
!	!	!LO:N:vis=8	!	!	!	!	!	!	!	!	!	!	!
4r	.	4r	.	4r	.	4dd\	ff	4r	.	4r	.	4dd\	.
=1	=1	=1	=1	=1	=1	=1	=1	=1	=1	=1	=1	=1	=1
!	!LO:DY:a:rj:t=f.	!	!LO:DY:a	!	!LO:DY:a:rj:t=f.	!	!	!	!	!	!LO:DY:rj	!	!
4D\	f	4D/	ff	4a 4f#/	f	(16cc#\KL	.	4f#/	.	4dd\	f	(16cc#\KL	.
.	.	.	.	.	.	8.dd\J)	.	.	.	.	.	8.dd\J)	.
4D\	.	4d\	.	4a 4f#/	.	8dd\L	.	4f#/	.	4dd\	.	4dd\	.
.	.	.	.	.	.	8ff#\J	.	.	.	.	.	.	.
4r	.	4r	.	4r	.	4r	.	4r	.	4r	.	4ff#\	.
=2	=2	=2	=2	=2	=2	=2	=2	=2	=2	=2	=2	=2	=2
4D\	.	4D/	.	4a 4f#/	.	(8.ee\L	.	4f#/	.	4dd\	.	(16ee\KL	.
.	.	.	.	.	.	.	.	.	.	.	.	8.ff#\J)	.
.	.	.	.	.	.	16ff#\Jk)	.	.	.	.	.	.	.
4D\	.	4d\	.	4a 4f#/	.	4ff#\	.	4f#/	.	4dd\	.	4ff#\	.
4r	.	4r	.	4r	.	4aa\	.	4r	.	4r	.	4aa\	.
=3	=3	=3	=3	=3	=3	=3	=3	=3	=3	=3	=3	=3	=3
*	*	*^	*	*^	*	*	*	*	*	*	*	*	*
4A\	.	4e/	4c#\	.	4a/	4g\	.	4a'\	.	4A/	.	4ee\	.	4a\	.
4A\	.	4e/	4c#\	.	4a/	4g\	.	4cc#'\	.	4A/	.	4ee\	.	4cc#\	.
4A\	.	4e/	4c#\	.	4a/	4g\	.	4ee'\	.	4A/	.	4ee\	.	4ee\	.
=4	=4	=4	=4	=4	=4	=4	=4	=4	=4	=4	=4	=4	=4	=4	=4
*	*	*	*	*	*	*	*	*	*	*	*	*2\right	*	*	*
4A\	.	4e/	4c#\	.	4a/	4g\	.	4gg\	.	2A/	.	2ee\	.	4gg\	.
4r	.	4r	4ryy	.	4r	4ryy	.	4r	.	.	.	.	.	4r	.
4r	.	4r	4ryy	.	4r	4ryy	.	4eee\	.	4r	.	4r	.	4eee\	.
*	*	*v	*v	*	*	*	*	*	*	*	*	*	*	*	*
*	*	*	*	*v	*v	*	*	*	*	*	*	*	*	*
=5	=5	=5	=5	=5	=5	=5	=5	=5	=5	=5	=5	=5	=5
4AA/	.	4g 4A/	.	4cc# 4e/	.	(16ddd#X\KL	.	4A/	.	4ee\	.	(16ddd#X\KL	.
.	.	.	.	.	.	8.eee\J)	.	.	.	.	.	8.eee\J)	.
4AA/	.	4g 4A/	.	4cc# 4e/	.	4eee\	.	4A/	.	4ee\	.	4eee\	.
4r	.	4r	.	4r	.	4ccc#\	.	4r	.	4r	.	4ccc#\	.
=6	=6	=6	=6	=6	=6	=6	=6	=6	=6	=6	=6	=6	=6
4AA/	.	4g 4A/	.	4cc# 4e/	.	(16gg#X\KL	.	4a/	.	4ee\	.	16gg#X\KL	.
.	.	.	.	.	.	8.aa\J)	.	.	.	.	.	8.aa\J	.
4AA/	.	4g 4A/	.	4cc# 4e/	.	4aa\	.	4a/	.	4ee\	.	4aa\	.
4C#/	.	4A/	.	4ee\	.	4ggn\	.	4a/	.	4ee\	.	4ggn\	.
!	!	!LO:LB:g=original	!	!	!	!	!	!	!	!	!	!	!
=7	=7	=7	=7	=7	=7	=7	=7	=7	=7	=7	=7	=7	=7
.	.	.	.	.	.	8qqgg/	.	.	.	.	.	8qqgg/	.
4D\	.	4A/	.	4dd\	.	4ff#\	.	4dd\	.	4ff#\	.	4ff#\	.
4F#\	.	4A/	.	4a/	.	(8ee\L	.	8d/L	.	4dd\	.	(8ee\L	.
.	.	.	.	.	.	8dd\	.	8f#/J	.	.	.	8dd\	.
4A\	.	4A/	.	4g/	.	8cc#\	.	4a/	.	4ee\	.	8cc#\)	.
.	.	.	.	.	.	8ee\J)	.	.	.	.	.	8ee\J	.
!LO:LB:g=original	!	!	!	!	!	!	!	!	!	!	!	!	!
=8	=8	=8	=8	=8	=8	=8	=8	=8	=8	=8	=8	=8	=8
4D\	.	4A/	.	4f#/	.	4dd\	.	4f#/	.	4dd\	.	4dd\	.
4r	.	4r	.	4r	.	4r	.	4r	.	4r	.	4r	.
=:|!|:	=:|!|:	=:|!|:	=:|!|:	=:|!|:	=:|!|:	=:|!|:	=:|!|:	=:|!|:	=:|!|:	=:|!|:	=:|!|:	=:|!|:	=:|!|:
*>B	*	*>B	*	*>B	*	*>B	*	*>B	*	*>B	*	*>B	*
!LO:N:vis=8	!	!	!LO:DY:a	!	!	!	!	!	!	!	!	!	!
4r	.	4f#\	p	4a/	p	4aa\	p	4r	.	4r	.	4r	.
!	!	!	!	!	!	!	!	!	!	!LO:LB:g=original	!	!	!
=9	=9	=9	=9	=9	=9	=9	=9	=9	=9	=9	=9	=9	=9
!LO:TX:a:t=2	!	!	!	!	!	!	!	!LO:TX:a:t=5	!	!LO:TX:a:t=5	!	!	!
!LO:N:vis=0	!	!	!	!	!	!	!	!LO:N:vis=00	!	!LO:N:vis=00	!	!LO:N:vis=00	!
1.r	.	16e#X\KL	.	(16g#X/KL	.	(16gg#X\KL	.	0.r	.	0.r	.	0.r	.
.	.	8.f#\J	.	8.a/J)	.	8.aa\J)	.	.	.	.	.	.	.
.	.	4f#\	.	4a/	.	4aa\	.	.	.	.	.	.	.
.	.	4d\	.	4f#/	.	4ff#\	.	.	.	.	.	.	.
!	!	!	!	!LO:LB:g=original	!	!LO:LB:g=original	!	!	!	!	!	!	!
=10	=10	=10	=10	=10	=10	=10	=10	=10	=10	=10	=10	=10	=10
.	.	(16e\KL	.	(16g#X/KL	.	(16gg#X\KL	.	.	.	.	.	.	.
.	.	8.f#\J)	.	8.a/J)	.	8.aa\J)	.	.	.	.	.	.	.
.	.	4f#\	.	4a/	.	4aa\	.	.	.	.	.	.	.
.	.	4d\	.	4f#/	.	4ff#\	.	.	.	.	.	.	.
=11	=11	=11	=11	=11	=11	=11	=11	=11	=11	=11	=11	=11	=11
4d\	.	4fn\	.	4a'/	.	4aa'\	.	.	.	.	.	.	.
4d\	.	4f\	.	4a'/	.	4aa'\	.	.	.	.	.	.	.
4d\	.	4f\	.	4a'/	.	4aa'\	.	.	.	.	.	.	.
=12	=12	=12	=12	=12	=12	=12	=12	=12	=12	=12	=12	=12	=12
4d\	.	4f#\	.	4a/	.	4aa\	.	.	.	.	.	.	.
!	!	!	!	!	!	!LO:N:vis=4.	!	!	!	!	!	!	!
4d\	.	4f#\	.	4a/	.	4aa\	.	.	.	.	.	.	.
4d\	.	4f#\	.	4a/	.	4aa\	f	.	.	.	.	.	.
=13	=13	=13	=13	=13	=13	=13	=13	=13	=13	=13	=13	=13	=13
*2\right	*	*2\right	*	*	*	*2\right	*	*	*	*	*	*2\right	*
!LO:TX:a:t=P:problem=diminuendolike accent	!	!	!	!	!LO:DY:t=rf.	!	!	!	!	!	!	!	!
2.G^\	.	2.g^\	.	2b-X 2e-X/	rf	2.bb-X 2.b\	.	2.r	.	2.r	.	2.bb-X\	.
.	.	.	.	4r	.	.	.	.	.	.	.	.	.
!	!	!	!	!	!	!	!	!	!	!	!	!LO:LB:g=original	!
=14	=14	=14	=14	=14	=14	=14	=14	=14	=14	=14	=14	=14	=14
!	!	!	!	!	!	!	!	!	!LO:DY:rj	!	!LO:DY:rj:t=f.	!	!
2.G#X\	.	2.fn\	.	2.bn 2.d/	.	2.dd\	.	2.d/	f	2.dd\	f	2.ddd\	.
!	!	!LO:LB:g=original	!	!	!	!	!	!	!	!	!	!	!
=15	=15	=15	=15	=15	=15	=15	=15	=15	=15	=15	=15	=15	=15
!	!	!	!	!	!LO:DY:a	!	!LO:DY:t=p.	!	!	!	!	!	!
4A\	.	4e\	.	(<2a/	p	(2cc#\	p	[2.A/	.	[2.a/	.	4ccc#\	.
4r	.	4r	.	.	.	.	.	.	.	.	.	4r	.
4r	.	4r	.	(4dd\)	.	(4ffn\)	.	.	.	.	.	4r	.
=16	=16	=16	=16	=16	=16	=16	=16	=16	=16	=16	=16	=16	=16
!	!LO:DY:rj	!	!LO:DY:rj	!	!	!	!	!	!	!	!	!	!
4A\	p	4A/	p	4cc#X\)	.	4ee\)	.	4A/]	.	4a/]	.	4r	.
4r	.	4r	.	4r	.	4r	.	4r	.	4r	.	4aa\	.
4r	.	4r	.	(4g#X/	.	(4dd\	.	4r	.	4r	.	4r	.
!	!	!	!	!	!	!	!	!LO:LB:g=original	!	!	!	!	!
=17	=17	=17	=17	=17	=17	=17	=17	=17	=17	=17	=17	=17	=17
4A\	.	4A/	.	4a/)	.	4cc#\)	.	4A/	.	4a/	.	4r	.
4r	.	4r	.	4r	.	4r	.	4r	.	4r	.	4aa\	.
4r	.	4r	.	(4dd\	.	(4ffn\	.	4r	.	4r	.	4r	.
!LO:LB:g=original	!	!	!	!	!	!	!	!	!	!	!	!	!
=18	=18	=18	=18	=18	=18	=18	=18	=18	=18	=18	=18	=18	=18
4A\	.	4A/	.	4cc#\)	.	4ee\)	.	4A/	.	4a/	.	4r	.
4r	.	4r	.	4r	.	4r	.	4r	.	4r	.	4aa\	.
!	!	!	!	!	!LO:DY:t=pp	!	!	!	!	!	!	!	!
4r	.	4r	.	(4dd\	pp	(4gg#X\	pp	4r	.	4r	.	4r	.
=19	=19	=19	=19	=19	=19	=19	=19	=19	=19	=19	=19	=19	=19
!LO:TX:a:t=2	!	!LO:TX:a:t=2	!	!	!	!	!	!LO:TX:a:t=2	!	!LO:TX:a:t=2	!	!	!
!LO:N:vis=0	!	!LO:N:vis=0	!	!	!	!	!	!LO:N:vis=0	!	!LO:N:vis=0	!	!	!
1.r	.	1.r	.	4cc#\)	.	4aa\)	.	1.r	.	1.r	.	4r	.
.	.	.	.	4r	.	4r	.	.	.	.	.	4aa\	.
.	.	.	.	4r	.	4r	.	.	.	.	.	4r	.
=20	=20	=20	=20	=20	=20	=20	=20	=20	=20	=20	=20	=20	=20
.	.	.	.	4r	.	4r	.	.	.	.	.	4r	.
!	!	!	!	!	!LO:DY:t=f.	!	!	!	!	!	!	!	!
.	.	.	.	4r	f	4r	ff	.	.	.	.	4r	f
.	.	.	.	4d/	.	4dd\	.	.	.	.	.	4dd\	.
=21	=21	=21	=21	=21	=21	=21	=21	=21	=21	=21	=21	=21	=21
*	*	*^	*	*	*	*	*	*	*	*	*	*	*
!	!LO:DY:rj:t=f.	!	!	!	!	!	!	!	!	!LO:DY:rj	!	!LO:DY:rj	!	!
4D\	f	4a/	4f#\	ff	(16c#/KL	.	(16cc#\KL	.	4f#/	f	4dd\	f	(16cc#\KL	.
.	.	.	.	.	8.d/J)	.	8.dd\J)	.	.	.	.	.	8.dd\J)	.
4D\	.	4a/	4f#\	.	4d/	.	4dd\	.	4f#/	.	4dd\	.	4dd\	.
4r	.	4r	4ryy	.	4f#/	.	4ff#\	.	4r	.	4r	.	4ff#\	.
!	!	!	!	!	!LO:LB:g=original	!	!LO:LB:g=original	!	!	!	!	!	!	!
=22	=22	=22	=22	=22	=22	=22	=22	=22	=22	=22	=22	=22	=22	=22
4D\	.	4a/	4f#\	.	(16e/KL	.	(16ee\KL	.	4f#/	.	4dd\	.	(16ee\KL	.
.	.	.	.	.	8.f#/J)	.	8.ff#\J)	.	.	.	.	.	8.ff#\J)	.
4D\	.	4a/	4f#\	.	4f#/	.	4ff#\	.	4f#/	.	4dd\	.	4ff#\	.
4r	.	4r	4ry	.	4a/	.	4aa\	.	4r	.	4r	.	4aa\	.
*	*	*v	*v	*	*	*	*	*	*	*	*	*	*	*
=23	=23	=23	=23	=23	=23	=23	=23	=23	=23	=23	=23	=23	=23
4AA/	.	4cc# 4e\	.	4A/	.	4a\	.	4a/	.	4ee\	.	4a\	.
4AA/	.	4cc# 4e\	.	4c#/	.	4cc#\	.	4a/	.	4ee\	.	4cc#\	.
4AA/	.	4cc# 4e\	.	4e/	.	4ee\	.	4a/	.	4ee\	.	4ee\	.
=24	=24	=24	=24	=24	=24	=24	=24	=24	=24	=24	=24	=24	=24
4AA/	.	4cc# 4e\	.	4g/	.	4gg\	.	2a/	.	2ee\	.	4gg\	.
4r	.	4r	.	4r	.	4r	.	.	.	.	.	4r	.
4r	.	4r	.	4ee\	.	4eee\	.	4r	.	4r	.	4eee\	.
=25	=25	=25	=25	=25	=25	=25	=25	=25	=25	=25	=25	=25	=25
4A\	.	4cc# 4e\	.	(16dd#X\KL	.	(16ddd#X\KL	.	4a/	.	4ee\	.	16ddd#X\KL	.
.	.	.	.	8.ee\J)	.	8.eee\J)	.	.	.	.	.	8.eee\J	.
!	!	!	!	!	!	!	!	!	!	!	!	!LO:TX:a:t=e	!
4A\	.	4cc# 4e\	.	4ee\	.	4eee\	.	4a/	.	4ee\	.	4eee\	.
!	!	!	!	!	!	!	!	!	!	!	!	!LO:TX:a:t=P:problem=wymazana kreska taktowa	!
4r	.	4r	.	4cc#\	.	4ccc#\	.	4r	.	4r	.	4ccc#\	.
!	!	!	!	!	!	!	!	!	!	!LO:LB:g=original	!	!	!
=26	=26	=26	=26	=26	=26	=26	=26	=26	=26	=26	=26	=26	=26
4A\	.	4cc# 4e\	.	(16g#X/KL	.	(16gg#X\KL	.	4a/	.	4ee\	.	16gg#X\KL	.
.	.	.	.	8.a/J)	.	8.aa\J)	.	.	.	.	.	8.aa\J	.
4A\	.	4cc# 4e\	.	4a/	.	4aa\	.	4a/	.	4ee\	.	4aa\	.
4C#/	.	4e\	.	4gn/	.	4ggn\	.	4a/	.	4ee\	.	4ggn\	.
!	!	!LO:LB:g=original	!	!	!	!	!	!	!	!	!	!	!
=27	=27	=27	=27	=27	=27	=27	=27	=27	=27	=27	=27	=27	=27
.	.	.	.	8qqg/	.	8qqgg/	.	.	.	.	.	8qqgg/	.
4D\	.	4d\	.	4f#/	.	4ff#\	.	4dd\	.	4ff#\	.	4ff#\	.
4F#\	.	4a\	.	8e/L	.	(8ee\L	.	8d/L	.	4dd\	.	8ee\L	.
.	.	.	.	(8d/	.	8dd\	.	8f#/J	.	.	.	8dd\	.
4A\	.	4g\	.	8c#/	.	8cc#\	.	4a/	.	4ee\	.	8cc#\	.
.	.	.	.	8e/J)	.	8ee\J)	.	.	.	.	.	8ee\J	.
!	!	!	!	!	!	!	!	!	!	!	!	!LO:LB:g=original	!
=28	=28	=28	=28	=28	=28	=28	=28	=28	=28	=28	=28	=28	=28
!	!	!	!	!	!	!	!	!LO:N:vis=4	!	!	!	!	!
4D\	.	4d\	.	4d/	.	4dd\	.	8f#/	.	4dd\	.	4dd\	.
.	.	.	.	.	.	.	.	8r	.	.	.	.	.
!LO:N:vis=4	!	!LO:N:vis=4	!	!	!	!LO:N:vis=4	!	!LO:N:vis=4	!	!LO:N:vis=4	!	!LO:N:vis=4	!
8r	.	8r	.	8r	.	8r	.	8r	.	8r	.	8r	.
!LO:LB:g=original	!	!LO:LB:g=original	!	!LO:LB:g=original	!	!LO:LB:g=original	!	!LO:LB:g=original	!	!LO:LB:g=original	!	!	!
=:|!	=:|!	=:|!	=:|!	=:|!	=:|!	=:|!	=:|!	=:|!	=:|!	=:|!	=:|!	=:|!	=:|!
*>C	*	*>C	*	*>C	*	*>C	*	*>C	*	*>C	*	*>C	*
*clefF4	*	*clefC3	*	*clefG2	*	*clefG2	*	*clefG2	*	*clefG2	*	*clefG2	*
*k[f#c#]	*	*k[f#c#]	*	*k[f#c#]	*	*k[f#c#]	*	*k[f#c#]	*	*k[f#c#]	*	*k[f#c#]	*
*M3/4	*	*	*	*M3/4	*	*M3/4	*	*M3/4	*	*M3/4	*	*M3/4	*
!LO:TX:a:B:t=Trio	!	!LO:TX:a:B:t=Trio	!	!LO:TX:a:B:t=Trio	!LO:DY:rj	!LO:TX:a:B:t=Trio	!	!LO:TX:a:B:t=Trio	!	!LO:TX:a:B:t=Trio	!	!LO:TX:a:B:t=Trio	!
4r	.	4r	.	(8A/L	p	(8a\L	p	8r	.	4r	.	(8a\L	.
.	.	.	.	8B/	.	8b\	.	4r	.	.	.	8b\	.
8r	.	8r	.	8c#/J)	.	8cc#\J)	.	.	.	8r	.	8cc#\J)	.
=29	=29	=29	=29	=29	=29	=29	=29	=29	=29	=29	=29	=29	=29
!LO:TX:a:t=1	!	!LO:TX:a:t=1	!	!	!	!	!	!LO:TX:a:t=1	!	!LO:TX:a:t=1	!	!	!
2.r	.	2.r	.	(8d/L	.	8dd\L	.	2.r	.	2.r	.	8dd\L	.
.	.	.	.	8e/	.	(8ee\	.	.	.	.	.	(8ee\	.
.	.	.	.	8f#/	.	8ff#\	.	.	.	.	.	8ff#\	.
.	.	.	.	8g/	.	8gg\	.	.	.	.	.	8gg\	.
.	.	.	.	8a/	.	8aa\	.	.	.	.	.	8aa\	.
.	.	.	.	8b/J)	.	8bb\J)	.	.	.	.	.	8bb\J)	.
=30	=30	=30	=30	=30	=30	=30	=30	=30	=30	=30	=30	=30	=30
!	!LO:DY:rj	!	!LO:DY:rj	!	!	!	!	!	!	!	!	!	!
4D\	p	4f# 4A\	p	(8a/L	.	(8aa\L	.	4ff#\	.	4aa\	.	(8aa\L	.
.	.	.	.	8f#/J)	.	8ff#\J)	.	.	.	.	.	8ff#\J)	.
4r	.	4r	.	4d/	.	4dd\	.	4r	.	4r	.	4dd\	.
4r	.	4r	.	8e/L	.	(8ee\L	.	4r	.	4r	.	(8ee\L	.
.	.	.	.	8f#/J	.	8ff#\J)	.	.	.	.	.	8ff#\J)	.
=31	=31	=31	=31	=31	=31	=31	=31	=31	=31	=31	=31	=31	=31
*	*	*^	*	*	*	*	*	*	*	*	*	*	*
4A\	.	4e/	4c#\	.	8g/L	.	(8gg\L	.	4ee\	.	4gg\	.	(8gg\L	.
.	.	.	.	.	8e/J	.	8ee\J)	.	.	.	.	.	8ee\J)	.
4r	.	4r	4ryy	.	4c#/	.	4cc#\|	.	4r	.	4r	.	4cc#\	.
4r	.	4r	4ryy	.	8d/L	.	(8dd\L	.	4r	.	4r	.	(8dd\L	.
.	.	.	.	.	8e/J	.	8ee\J)	.	.	.	.	.	8ee\J)	.
=32	=32	=32	=32	=32	=32	=32	=32	=32	=32	=32	=32	=32	=32	=32
*	*	*	*	*	*	*	*	*	*2\right	*	*	*	*	*
4D\	.	4d/	4A\	.	4f#/	.	4ff#\	.	2dd\	.	2ff#\	.	4ff#\	.
4r	.	4r	4ryy	.	8r	.	8r	.	.	.	.	.	8r	.
.	.	.	.	.	(8A/L	.	8a\L	.	.	.	.	.	(8a\L	.
4r	.	4r	4ryy	.	8B/	.	(8b\	.	4r	.	4r	.	8b\	.
.	.	.	.	.	8c#/J)	.	8cc#\J)	.	.	.	.	.	8cc#\J)	.
*	*	*v	*v	*	*	*	*	*	*	*	*	*	*	*
=33	=33	=33	=33	=33	=33	=33	=33	=33	=33	=33	=33	=33	=33
!LO:TX:a:t=1	!	!LO:TX:a:t=1	!	!	!	!	!	!LO:TX:a:t=1	!	!LO:TX:a:t=1	!	!	!
2.r	.	2.r	.	(8d/L	.	8dd\L	.	2.r	.	2.r	.	8dd\L	.
.	.	.	.	8e/	.	(8ee\	.	.	.	.	.	(8ee\	.
.	.	.	.	8f#/	.	8ff#\	.	.	.	.	.	8ff#\	.
.	.	.	.	8g/	.	8gg\	.	.	.	.	.	8gg\	.
.	.	.	.	8a/	.	8aa\	.	.	.	.	.	8aa\)	.
.	.	.	.	8b/J)	.	8bb\J)	.	.	.	.	.	8bb\J	.
=34	=34	=34	=34	=34	=34	=34	=34	=34	=34	=34	=34	=34	=34
*	*	*^	*	*	*	*	*	*	*	*	*	*	*
4D\	.	4f#/	4A\	.	(8a/L	.	(8aa\L	.	4dd\	.	4ff#\	.	(8aa\L	.
.	.	.	.	.	8f#/J)	.	8ff#\J)	.	.	.	.	.	8ff#\J)	.
4r	.	4r	4ryy	.	4d/	.	4dd\	.	4r	.	4r	.	4dd\	.
4r	.	4r	4ryy	.	(8e/L	.	(8ee\L	.	4r	.	4r	.	(8ee\L	.
.	.	.	.	.	8f#/J)	.	8ff#\J)	.	.	.	.	.	8ff#\J)	.
!	!	!	!	!	!LO:LB:g=original	!	!LO:LB:g=original	!	!	!	!	!	!	!
=35	=35	=35	=35	=35	=35	=35	=35	=35	=35	=35	=35	=35	=35	=35
4A\	.	4e/	4c#\	.	8g/L	.	(8gg\L	.	4a/	.	4ee\	.	(8gg\L	.
.	.	.	.	.	8e/J	.	8ee\J)	.	.	.	.	.	8ee\J)	.
4r	.	4r	4ryy	.	4c#/	.	4cc#\|	.	4r	.	4r	.	4cc#\	.
!	!	!	!	!	!	!	!	!	!	!	!	!	!LO:LB:g=original	!
4r	.	4r	4ryy	.	8A/L	.	8a\L	.	4r	.	4r	.	8a\L	.
.	.	.	.	.	8c#/J	.	8cc#\J	.	.	.	.	.	8cc#\J	.
!LO:LB:g=original	!	!LO:LB:g=original	!	!	!	!	!	!	!	!	!	!	!	!
=36	=36	=36	=36	=36	=36	=36	=36	=36	=36	=36	=36	=36	=36	=36
4D\	.	4d/	4A\	.	4d/	.	4dd\	.	4f#/	.	4dd\	.	4dd\	.
8r	.	8r	8ryy	.	8r	.	8r	.	8r	.	8r	.	8r	.
*	*	*v	*v	*	*	*	*	*	*	*	*	*	*	*
=:|!|:	=:|!|:	=:|!|:	=:|!|:	=:|!|:	=:|!|:	=:|!|:	=:|!|:	=:|!|:	=:|!|:	=:|!|:	=:|!|:	=:|!|:	=:|!|:
*>D	*	*>D	*	*>D	*	*>D	*	*>D	*	*>D	*	*>D	*
!	!	!	!	!	!	!LO:TX:b:t=P:problem=diminuendolike accent	!	!	!	!	!	!	!
4r	.	4.ryy	.	(8ff#\L	.	(8aa^<\L	.	8r	.	8r	.	8r	.
.	.	.	.	8ee\	.	8gg\	.	4r	.	4r	.	4r	.
8r	.	.	.	8dd\J)	.	8ff#\J)	.	.	.	.	.	.	.
!	!	!	!	!	!	!	!	!	!	!LO:LB:g=original	!	!	!
=37	=37	=37	=37	=37	=37	=37	=37	=37	=37	=37	=37	=37	=37
!LO:TX:a:t=1	!	!LO:TX:a:t=1	!	!	!	!	!	!LO:TX:a:t=1	!	!LO:TX:a:t=1	!	!LO:TX:a:t=1	!
2.r	.	2.r	.	(8cc#/L	.	(8ee\L	.	2.r	.	2.r	.	2.r	.
.	.	.	.	8b/	.	8dd\	.	.	.	.	.	.	.
.	.	.	.	8a/	.	8cc#\	.	.	.	.	.	.	.
.	.	.	.	8g/	.	8b\)	.	.	.	.	.	.	.
.	.	.	.	8f#/	.	8a\	.	.	.	.	.	.	.
.	.	.	.	8e/J)	.	8g\J	.	.	.	.	.	.	.
=38	=38	=38	=38	=38	=38	=38	=38	=38	=38	=38	=38	=38	=38
4D\	.	4A/	.	4d/	.	4f#/	.	4dd\	.	4ff#\	.	4aa\	.
4D\	.	4A/	.	4d/	.	4f#/	.	4dd\	.	4ff#\	.	4aa\	.
4D\	.	4A/	.	4d/	.	4f#/	.	4dd\	.	4ff#\	.	4aa\	.
!	!	!	!	!	!	!	!	!LO:LB:g=original	!	!	!	!	!
=39	=39	=39	=39	=39	=39	=39	=39	=39	=39	=39	=39	=39	=39
(4D/	.	[2.A/	.	4d/	.	(4f#/	.	4dd\	.	4ff#\	.	(4aa\	.
4C#/	.	.	.	4e/	.	4g/	.	4ee\	.	4gg\	.	4eee\	.
4D/)	.	.	.	4d/	.	4f#/)	.	4dd\	.	4ff#\	.	4ddd\)	.
=40	=40	=40	=40	=40	=40	=40	=40	=40	=40	=40	=40	=40	=40
4AA/	.	4A/]	.	4c#/	.	4e/	.	2a/	.	2ee\	.	4ccc#\	.
4r	.	4r	.	8r	.	8r	.	.	.	.	.	4r	.
!	!	!	!	!	!	!LO:TX:b:t=P:problem=diminuendolike accent	!	!	!	!	!	!	!
.	.	.	.	(8ff#\L	.	8aa^<\L	.	.	.	.	.	.	.
4r	.	4r	.	8ee\	.	8gg\	.	4r	.	4r	.	4r	.
.	.	.	.	8dd\J)	.	8ff#\J	.	.	.	.	.	.	.
=41	=41	=41	=41	=41	=41	=41	=41	=41	=41	=41	=41	=41	=41
!LO:TX:a:t=1	!	!LO:TX:a:t=1	!	!	!	!	!	!LO:TX:a:t=1	!	!LO:TX:a:t=1	!	!LO:TX:a:t=1	!
2.r	.	2.r	.	(8cc#/L	.	8ee\L	.	2.r	.	2.r	.	2.r	.
.	.	.	.	8b/	.	8dd\	.	.	.	.	.	.	.
.	.	.	.	8a/	.	(8cc#\	.	.	.	.	.	.	.
.	.	.	.	8g/)	.	8b\	.	.	.	.	.	.	.
.	.	.	.	8f#/	.	8a\)	.	.	.	.	.	.	.
.	.	.	.	8e/J	.	8g\J	.	.	.	.	.	.	.
!	!	!	!	!	!	!LO:LB:g=original	!	!	!	!	!	!	!
=42	=42	=42	=42	=42	=42	=42	=42	=42	=42	=42	=42	=42	=42
4D/	.	4A/	.	4d/	.	4f#/	.	4dd\	.	4ff#\	.	4aa\	.
4D/	.	4A/	.	4d/	.	4f#/	.	4dd\	.	4ff#\	.	4aa\	.
4D/	.	4A/	.	4d/	.	4f#/	.	4dd\	.	4ff#\	.	4aa\	.
!	!	!	!	!LO:LB:g=original	!	!	!	!	!	!	!	!	!
=43	=43	=43	=43	=43	=43	=43	=43	=43	=43	=43	=43	=43	=43
4D/	.	2A/	.	4d/	.	4f#/	.	4dd\	.	4ff#\	.	4aa\	.
4GG/	.	.	.	4e/	.	4g/	.	4ee\	.	4gg\	.	(4eee\	.
4AA/	.	[4A/	.	4c#/	.	4e/	.	4a/	.	4ee\	.	4ccc#\)	.
=44	=44	=44	=44	=44	=44	=44	=44	=44	=44	=44	=44	=44	=44
4D\	.	4A/]	.	4d/	.	4d/	.	4f#/	.	4dd\	.	4ddd\	.
!LO:TX:b:Bi:t=Menuet Da Capo	!	!LO:TX:b:t=Menuet. Da Capo	!	!LO:TX:b:t=Menuetto Da capo.	!	!LO:TX:b:t=Menuett Da Capo	!	!LO:TX:b:t=M&colon;D&colon;C&colon;	!	!LO:TX:b:B:t=M.D.C.	!	!	!
!LO:N:vis=4	!	!	!	!	!	!	!	!	!	!	!	!	!
8r	.	8r	.	8r	.	8r	.	8r	.	8r	.	8r	.
=:|!	=:|!	=:|!	=:|!	=:|!	=:|!	=:|!	=:|!	=:|!	=:|!	=:|!	=:|!	=:|!	=:|!
*-	*-	*-	*-	*-	*-	*-	*-	*-	*-	*-	*-	*-	*-
!!!system-decoration: s1[g1][g2]
!!!RDF**kern: < = below
!!!RDF**dynam: pp = "pp."
!!!RDF**dynam: ff = "ff."
!!!RDF**kern: | = vertical stroke
!!!ENC: Zofia Niedbalska
!!!END: 2020-12-07
!!!ENC: Mateusz Solarz
!!!END: 2020-06-10
!!!YEC: Copyright 2022 Narodowy Instytut Fryderyka Chopina (https://polishscores.org)
!!!YEM: License CC-BY-4.0 (https://creativecommons.org/licenses/by/4.0)
